X:2871
T:Frieras a ongkar'n te jent\ae
C:anon.
O:Norway
A:Vestfold
Z:Transcribed by Frank Nordberg - http://www.musicaviva.com
F:http://abc.musicaviva.com/tunes/norway/frieras-a-ongkarn/frieras-a-ongkarn-1.abc
M:3/4
L:1/8
K:Em
"Em"G>F|"Em"E>G "B"F>E ^D>F|"Em"E z E2 G>F|"Em"E>F G>B "D"A>F|"G"G z G2 G>F|
w:J\ae sku au ha l\ost t'\aa jif-te mei, san; n\aar j\ae traf ei jen-te rek-ti grei, san. Slik ho
"G"G>A B>c B>G|"D"F>G A>B G>F|"Em"E>G "B"F>E ^D>F|"Em"E z E2 G>A|
w:en-te vil-le, l\aa-te vont \aa il-le, an-ten s\aa j\ae drek-ker hel-ler ei, san. Sjenk en
"G"B2 B2 {A/B/}c>B|"D"A2A2 {G/A/}"B"B>A|"Em"G>F E>G "B"F>^D|"Em"E z E2|]
w:dram, san! * f\aa m\ae skam, san! * Ta'r di man-ge sli-ke gut-t\aer fram, san!
W:
W:J\ae sku au ha l\ost t'\aa jifte mei, san;
W:n\aar j\ae traf ei jente rekti grei, san.
W:Slik ho ente ville,
W:l\aate vont \aa ille,
W:anten s\aa j\ae drekker heller ei, san.
W:  Sjenk en dram, san!
W:  f\aa m\ae skam, san!
W:  Ta'r di mange slike gutt\aer fram, san!
W:
W:Den, som j\ae ska ha, m\aa v\aera rar, san!
W:F\aer j\ae sj\ol er en aparto kar, san!
W:Ho sk\ae kunne gj\ore,
W:h\aa de kommer f\ore,
W:\aa s\aa tar j\ae ei, som p\aeing har, san.
W:  Sjenk en dram...
W:
W:
W:  From Musica Viva - http://www.musicaviva.com
W:  the Internet center for free sheet music downloads.

